X:1
T:The Two Sisters
M:6/8
L:1/8
K:C
 D| DEG GAB AGE| D3 e2 d dBd| e3- e2 d ede| ged eed B2 G| AAAA-G A B2 G|\
 EDE G3 A3|
M:9/8
 Bdd e3| d2 B|
M:6/8
 ABd B2 A| G3- G2||
